X:1
T:Étude 19
T:"Spinning Song" from Op. 45
T:Spinning Song
T:Heller, Stephen (1813-1888)
T:Studio KonKon | Public Domain © comp.1845, pub.1845 | IMSLP#253721 (DRPDM) Digital Re-scoring of Public Domain Music free to reuse, edit and modify without permission
T:Étude 19 
T:"Spinning Song" from Op. 45 
T:Studio KonKon | Public Domain © comp.1845, pub.1845 | IMSLP#253721 (DRPDM) Digital Re-scoring of Public Domain Music free to reuse, edit and modify without permission
T:Studio KonKon | Public Domain © comp.1845, pub.1845 | IMSLP#253721 (DRPDM) Digital Re-scoring of Public Domain Music free to reuse, edit and modify without permission
C:Heller, Stephen
Z:Studio Konkon
Z:Studio KonKon | Public Domain © comp.1845, pub.1845 | IMSLP#253721
Z:(DRPDM) Digital Re-scoring of Public Domain Music
Z:free to reuse, edit and modify without permission
%%score { ( 1 2 ) | ( 3 4 5 ) }
L:1/8
M:6/8
K:F
V:1 treble nm="Allegretto grazioso."
V:2 treble 
V:3 bass 
V:4 bass 
V:5 bass 
V:1
"^1"!p!"^2""^Allegretto\ngrazioso.\n" z z"^3" (e !>!g2"^3" e) | z z (e g2 e) | %2
 z z (e!<(! g2"^5" b)!<)! |"^5"!>(! (a2"^5" g!>)!"^4" f2) z |!p! z z (e g2 e) | z z (e g2 e) | %6
 z z (e!<(! g2 b)!<)! |!>(! (a2 g!>)! f2) z | %8
 z z"^5"!mf!!8va(! ([aa']"^4"!<(! [bb']2!<)!"^5" [c'c'']) | %9
 ([d'd'']2"^4" [bb']!8va)!"^5" [Gg]2)"^1" e/"^2"f/ |"^3" g/"^4"a/g/a/g/a/ g/a/g/a/g/a/ | %11
 g/a/g/a/"^2"g/a/"^1" g/a/g/a/g/a/ | z z"^5"!mf!!8va(! ([aa']"^4"!<(! [bb']2!<)!"^5" [c'c'']) | %13
 ([d'd'']2"^4" [bb']!8va)!"^5" [Gg]2)"^1" e/"^2"f/ |"^3" g/"^4"a/g/a/g/a/ g/a/g/a/g/a/ | %15
 g/a/g/a/g/a/ g/a/g/a/!<(!g/a/!<)! | (g/a/g/a/g/f/"^1"!>(! e/"^4"f/"^3"e/"^4"f/!>)!"^3"e/"^2"d/) | %17
"^1"!p! (c/"^4"d/"^3"c/d/c/"^1"=B/"^3" _B/"^4"c/B/c/B/A/) | %18
"^1" (G/"^4"A/"^3"G/A/G/F/"^1" E/"^4"F/"^3"E/F/E/D/) | %19
"^1" (C/"^2"^C/"^1"D/"^3"^D/"^1"E/"^2"F/"^3" ^F/"^1"G/"^3"^G/"^1"A/"^3"B/"^1"=B/) | %20
"^2""^3" z"^1""^2" z"^3""^1""^2" (e"^5" g2"^3" e) | z z"^3" (e"^5" g2"^3" e) | z z (e g2 b) | %23
"^5"!>(! (a2"^5" g!>)!"^4" f2) z | z z"^3" (e"^5" g2"^3" e) | z z (e g2 e) | z z (e!<(! g2 b)!<)! | %27
!>(! (a2 g!>)!"^43""^2" f3) |"^53""^2""^3" f3"^53""^2""^3" f3 | %29
"^53""^2""^3" f3"^52""^1""^2""^1" f3 |"^53""^2" f3"^2" f3 |"^53""^2" f3"^52""^1" f3 | %32
"^53""^2""^3" F3-!p! F z"^32" [B,D] |"^53"!p!"^2" F3- F z [B,D] | F3- F z [B,D] | %35
"^53"!<(! [DF] z"^421" .[DFB]"^5" .[DFBd]!<)! z .[FBdf] | .[Acfa] z z!p! !arpeggio!.[FAcf] z z | %37
!>(! !arpeggio!.[CFAc] z z .[A,CFA] z!>)! z | .[A,CF] z z z3 | z6 |] %40
V:2
 c/d/c/d/c/d/ c/d/c/d/c/d/ | c/d/c/d/c/d/ c/d/c/d/c/d/ | c/d/c/d/c/d/ c/d/c/d/c/d/ | %3
 c/d/c/d/c/d/ c/d/c/d/c/d/ | c/d/c/d/c/d/ c/d/c/d/c/d/ | c/d/c/d/c/d/ c/d/c/d/c/d/ | %6
 c/d/c/d/c/d/ c/d/c/d/c/d/ | c/d/c/d/c/d/ c/d/c/d/c/d/ | x2!8va(! x4 | x3!8va)! x3 | %10
 z z ([=Bf] [ce]) x ([Bf] | [ce]) z (f e) z z | x2!8va(! x4 | x3!8va)! x3 | %14
 z z ([=Bf] [ce]) z ([Bf] | [ce]) z (f e) z (f | e) z z z2 z | x6 | x6 | x6 | %20
 c/d/c/d/c/d/ c/d/c/d/c/d/ | c/d/c/d/c/d/ c/d/c/d/c/d/ | c/d/c/d/c/d/ c/!<(!d/c/d/c/!<)!d/ | %23
 c/d/c/d/c/d/ c/d/c/d/c/d/ | c/d/c/d/c/d/ c/d/c/d/c/d/ | c/d/c/d/c/d/ c/d/c/d/c/d/ | %26
 c/d/c/d/c/d/ c/d/c/d/c/d/ | c/d/c/d/c/d/ !^!_e/d/e/d/e/c/ | !^!d/^c/d/c/d/c/ !^!_d/=c/d/c/d/c/ | %29
 !^!c/B/c/B/c/B/ !^!B/A/B/A/B/A/ | !^!d/^c/d/c/d/c/ !^!_d/=c/d/c/d/c/ | %31
 !^!c/B/c/B/c/B/ !^!B/A/B/A/B/A/ | D/^C/D/C/D/C/ D x2 | D/^C/D/C/D/C/ D x2 | D/^C/D/C/D/C/ D x2 | %35
 x6 | x6 | x6 | x6 | x6 |] %40
V:3
"^5"!p! C,"^3"G,"^2"B,"^1" E2"^2" B, | C,G,B, E2 B, | C,G,B, E2"^4" D |"^5" C"^3"E"^1"B"^12" A2 z | %4
 C,G,B, E2 B, | C,G,B, E2 B, | C,G,B, E2"^4" D | CEB A2 z | %8
"^2" c/"^1"d/c/d/"^5"c/d/"^5" c/d/c/d/"^4"c/d/ |"^3" c/d/c/d/"^4"c/d/"^5" c/d/c/d/ z | %10
 z!p! z"^5" G,,"^2" C, z"^4" G, | C z[K:treble]"^23" [G=B] [Cc] z z | %12
"^2" c/"^1"d/c/d/"^5"c/d/"^5" c/d/c/d/"^4"c/d/ |"^3" c/d/c/d/"^4"c/d/"^5" c/d/c/d/ z | %14
 z!p! z"^5" G,,"^2" C, z"^4" G, | C z[K:treble] [G=B] [Cc] z"^13" [GB] |"^25" [Cc] z z z2 z | z6 | %18
 z6 | z6 |"^5"!p! F,,"^dol:""^3"C,"^1"G,"^2" B,2"^1" G, | F,,C,G, B,2 G, | %22
"^5" C,"^3"G,"^2"B,"^1" E2"^1" D |"^5" C"^3"E"^1"B"^12" A2 z |!p! F,,C,G, B,2 G, | C,G,B, E2 B, | %26
 F,,C,G, B,2"^1" D |"^5" CEB A3 | !^![B,F]3 !^![A,F]3 | !^![G,F]3 !^![F,F]3 | !^![B,F]3 !^![A,F]3 | %31
 !^![G,F]3 !^![F,F]3 | [B,,F,]3"^1" F,/"^2"E,/"^1"F,/E,/F,/E,/ | [B,,F,]3!p! F,/E,/F,/E,/F,/E,/ | %34
 [B,,F,]3 F,/E,/F,/E,/F,/E,/ |!<(! F,/E,/F,/E,/F,/E,/!<)! F,/E,/F,/E,/F,/E,/ | %36
 F,,/"^1"F,/"^2"E,/F,/E,/F,/ F,,/F,/"^decres:"E,/F,/E,/F,/ | %37
 F,,/F,/E,/F,/E,/F,/ F,,/F,/E,/F,/E,/!pp!F,/ | %38
 F,,/F,/E,/F,/E,/F,/!pp! x/"^3" C,/"^2"=B,,/C,/B,,/C,/ | .[F,,,F,,] z z z2 z |] %40
V:4
 x6 | x6 | x6 | C3 F2 x | x6 | x6 | x6 | C3 F2 z | x6 | x6 | x6 | x2[K:treble] x4 | x6 | x6 | x6 | %15
 x2[K:treble] x4 | x6 | x6 | x6 | x6 | x6 | x6 | x6 | C3 F2 z | x6 | x6 | x6 | C3 F3 | x6 | x6 | %30
 x6 | x6 | x6 | x6 | x6 | x6 | x6 | x6 | x6 | x6 |] %40
V:5
 x6 | x6 | x6 | x6 | x6 | x6 | x6 | x6 | z z F G2 A | B2 G E2 x | x6 | x2[K:treble] x4 | %12
 z z F G2 A | B2 G E2 x | x6 | x2[K:treble] x4 | x6 | x6 | x6 | x6 | x6 | x6 | x6 | x6 | x6 | x6 | %26
 x6 | x6 | x6 | x6 | x6 | x6 | x3 B,,3 | x3 B,,3 | x3 B,,3 | B,,3 B,,3 | x6 | x6 | x3 F,,/ z/ z z | %39
 x6 |] %40

